src/assets/animalImage/img/bear.svg

<?xml version="1.0" encoding="UTF-8" standalone="no"?><!DOCTYPE svg PUBLIC "-//W3C//DTD SVG 1.1//EN" "http://www.w3.org/Graphics/SVG/1.1/DTD/svg11.dtd"><svg width="100%" height="100%" viewBox="0 0 840 739" version="1.1" xmlns="http://www.w3.org/2000/svg" xmlns:xlink="http://www.w3.org/1999/xlink" xml:space="preserve" style="fill-rule:evenodd;clip-rule:evenodd;stroke-linejoin:round;stroke-miterlimit:1.41421;"><path d="M771.929,356.004c0.566,-31.922 51.357,-32.2 63.869,-8.457c15.834,30.05 -25.803,67.247 -56.056,58.532c-18.978,-5.466 -21.975,-28.125 -7.813,-50.075" style="fill:#8a4533;fill-rule:nonzero;"/><path d="M539.117,570.066c9.943,19.3 24.396,34.397 15.625,56.25c-7.304,18.194 -34.079,28.478 -34.375,43.75c-0.419,21.425 33.321,15.244 45.312,14.063c26.975,-2.657 57.3,-2.207 63.75,-35.897c8.878,-46.366 -29.584,-81.278 -90.312,-78.166" style="fill:#8a4533;fill-rule:nonzero;"/><path d="M176.617,449.754c-2.266,19.859 8.181,45.962 11.278,65.631c3.265,20.722 7.909,41.075 11.812,62.147c7.653,41.325 8.772,67.997 -26.215,95.306c-12.822,10.009 -33.597,25.119 -12.494,37.462c15.503,9.072 43.85,6.513 60.894,3.9c23.631,-3.621 43.643,-10.381 51.165,-34.596c6.213,-19.997 -4.031,-62.463 20.753,-70.163c26.503,-8.234 33.253,36.791 36.013,53.984c1.806,11.269 3.184,18.135 -4.038,26.16c-6.772,7.525 -29.097,13.062 -27.378,27.947c3.178,27.518 71.431,21.987 89.088,16.668c49.375,-14.875 36.215,-63.112 31.503,-101.646c-6.35,-51.932 73.703,-49.916 109.787,-51.61c23.819,-1.115 44.719,2.535 59.435,22.6c9.74,13.288 26.59,38.538 19.081,53.888c-7.747,15.834 -30.319,23.065 -33.744,42.053c-4.453,24.681 23.381,33.497 42.756,35.481c48.338,4.95 92.144,-8.675 109.597,-58.006c11.225,-31.735 18.328,-65.413 28.819,-97.522c10.15,-31.069 29.475,-57.978 37.634,-89.375c16.882,-64.966 6.479,-137.953 -36.096,-189.994c-44.447,-54.331 -104.866,-78.584 -174.888,-75.422c-56.459,2.55 -88.95,56.257 -121.531,95.75c-29.2,35.397 -57.538,67.757 -100.519,87.332c-34.053,15.506 -77.341,27.546 -114.4,33.7c-25.191,4.184 -50.987,10.525 -68.312,8.325" style="fill:#955748;fill-rule:nonzero;"/><path d="M167.242,88.816c0,-33.962 -12.294,-64.072 -48.091,-73.047c-37.103,-9.306 -77.144,1.341 -101.866,30.86c-22.431,26.784 -21.072,65.69 -7.09,96.034c8.622,18.716 35.572,54.969 61.822,44.35c9.637,-3.9 21.965,-24.563 29.681,-32.647c10.847,-11.369 22.494,-21.731 34.019,-32.462c11.303,-10.525 21.015,-20.625 31.525,-33.088" style="fill:#955748;fill-rule:nonzero;"/><path d="M153.179,126.316c13.097,-50.553 -46.9,-91.097 -85.291,-53.184c-30.034,29.662 -11.981,72.297 21.31,90.293c14.872,8.038 17.54,3.832 31.562,-7.384c10.647,-8.519 24.46,-15.269 32.419,-29.725" style="fill:#fac065;fill-rule:nonzero;"/><path d="M445.312,76.316c0,-33.962 12.294,-64.072 48.091,-73.047c37.103,-9.306 77.144,1.341 101.866,30.86c22.431,26.784 21.072,65.69 7.09,96.034c-8.622,18.716 -35.572,54.969 -61.822,44.35c-9.637,-3.9 -21.965,-24.563 -29.681,-32.647c-10.847,-11.369 -22.494,-21.731 -34.019,-32.462c-11.303,-10.525 -21.015,-20.625 -31.525,-33.088" style="fill:#955748;fill-rule:nonzero;"/><path d="M459.375,113.816c-13.097,-50.553 46.9,-91.097 85.291,-53.184c30.034,29.662 11.981,72.297 -21.31,90.293c-14.872,8.038 -17.54,3.832 -31.562,-7.384c-10.647,-8.519 -24.46,-15.269 -32.419,-29.725" style="fill:#fac065;fill-rule:nonzero;"/><path d="M271.929,35.691c0,0 -115.625,-3.125 -193.75,104.688c-81.641,112.662 -48.437,242.187 45.313,295.312c93.75,53.125 262.5,75 362.5,6.25c100,-68.75 145.312,-150 104.687,-250c-40.625,-100 -132.812,-143.75 -203.125,-151.562c-70.312,-7.813 -115.625,-4.688 -115.625,-4.688" style="fill:#a16a5c;fill-rule:nonzero;"/><clipPath id="_clip1"><path d="M271.93,35.691c0,0 -115.625,-3.125 -193.75,104.688c-81.641,112.662 -48.438,242.187 45.309,295.312c93.753,53.125 262.503,75 362.503,6.25c100,-68.75 145.313,-150 104.685,-250c-40.622,-100 -132.81,-143.75 -203.122,-151.562c-39.06,-4.341 -70.407,-5.304 -90.553,-5.304c-16.122,0 -25.072,0.616 -25.072,0.616Z"/></clipPath><g clip-path="url(#_clip1)"><path d="M178.179,474.754c-36.734,-38.416 -19.237,-73.182 14.069,-105.035c26.678,-25.515 60.387,-41.156 95.306,-46.528c81.25,-12.5 152.538,43.334 164.019,117.572c6.244,40.375 -65.253,51.45 -94.575,56.509c-27.081,4.675 -57.763,6.547 -85.085,2.541c-28.368,-4.163 -53.65,-16.281 -93.734,-25.059" style="fill:#fac065;fill-rule:nonzero;"/></g><path d="M212.554,301.837c0,20.134 -16.322,36.459 -36.459,36.459c-20.135,0 -36.457,-16.325 -36.457,-36.459c0,-20.134 16.322,-36.459 36.457,-36.459c20.137,0 36.459,16.325 36.459,36.459" style="fill:#fff;fill-rule:nonzero;"/><path d="M197.701,301.837c0,11.931 -9.672,21.606 -21.606,21.606c-11.932,0 -21.603,-9.675 -21.603,-21.606c0,-11.931 9.671,-21.606 21.603,-21.606c11.934,0 21.606,9.675 21.606,21.606" style="fill:#1d1d1b;fill-rule:nonzero;"/><path d="M189.008,293.735c0,2.516 -2.041,4.556 -4.556,4.556c-2.519,0 -4.56,-2.04 -4.56,-4.556c0,-2.515 2.041,-4.556 4.56,-4.556c2.515,0 4.556,2.041 4.556,4.556" style="fill:#fff;fill-rule:nonzero;"/><path d="M463.596,299.754c0,20.134 -16.322,36.459 -36.459,36.459c-20.135,0 -36.457,-16.325 -36.457,-36.459c0,-20.135 16.322,-36.46 36.457,-36.46c20.137,0 36.459,16.325 36.459,36.46" style="fill:#fff;fill-rule:nonzero;"/><path d="M448.742,299.754c0,11.931 -9.671,21.606 -21.606,21.606c-11.931,0 -21.603,-9.675 -21.603,-21.606c0,-11.932 9.672,-21.607 21.603,-21.607c11.935,0 21.606,9.675 21.606,21.607" style="fill:#1d1d1b;fill-rule:nonzero;"/><path d="M440.05,291.652c0,2.515 -2.041,4.556 -4.556,4.556c-2.519,0 -4.56,-2.041 -4.56,-4.556c0,-2.516 2.041,-4.557 4.56,-4.557c2.515,0 4.556,2.041 4.556,4.557" style="fill:#fff;fill-rule:nonzero;"/><path d="M346.412,346.345c-12.703,-16.169 -87.812,-20.46 -83.428,11.315c4.216,30.585 39.291,58.7 64.238,32.169c8.681,-9.231 28.89,-31.141 19.19,-43.484" style="fill:#2d2317;fill-rule:nonzero;"/></svg>

<?xml version="1.0" encoding="UTF-8" standalone="no"?>
<!DOCTYPE svg PUBLIC "-//W3C//DTD SVG 1.1//EN" "http://www.w3.org/Graphics/SVG/1.1/DTD/svg11.dtd">
<svg width="100%" height="100%" viewBox="0 0 840 840" version="1.1" xmlns="http://www.w3.org/2000/svg" xmlns:xlink="http://www.w3.org/1999/xlink" xml:space="preserve" xmlns:serif="http://www.serif.com/" style="fill-rule:evenodd;clip-rule:evenodd;stroke-linejoin:round;stroke-miterlimit:1.41421;">
    <g transform="matrix(1,0,0,1,0,50.5)">
        <path d="M771.929,356.004C772.495,324.082 823.286,323.804 835.798,347.547C851.632,377.597 809.995,414.794 779.742,406.079C760.764,400.613 757.767,377.954 771.929,356.004" style="fill:rgb(138,69,51);fill-rule:nonzero;"/>
    </g>
    <g transform="matrix(1,0,0,1,0,50.5)">
        <path d="M539.117,570.066C549.06,589.366 563.513,604.463 554.742,626.316C547.438,644.51 520.663,654.794 520.367,670.066C519.948,691.491 553.688,685.31 565.679,684.129C592.654,681.472 622.979,681.922 629.429,648.232C638.307,601.866 599.845,566.954 539.117,570.066" style="fill:rgb(138,69,51);fill-rule:nonzero;"/>
    </g>
    <g transform="matrix(1,0,0,1,0,50.5)">
        <path d="M176.617,449.754C174.351,469.613 184.798,495.716 187.895,515.385C191.16,536.107 195.804,556.46 199.707,577.532C207.36,618.857 208.479,645.529 173.492,672.838C160.67,682.847 139.895,697.957 160.998,710.3C176.501,719.372 204.848,716.813 221.892,714.2C245.523,710.579 265.535,703.819 273.057,679.604C279.27,659.607 269.026,617.141 293.81,609.441C320.313,601.207 327.063,646.232 329.823,663.425C331.629,674.694 333.007,681.56 325.785,689.585C319.013,697.11 296.688,702.647 298.407,717.532C301.585,745.05 369.838,739.519 387.495,734.2C436.87,719.325 423.71,671.088 418.998,632.554C412.648,580.622 492.701,582.638 528.785,580.944C552.604,579.829 573.504,583.479 588.22,603.544C597.96,616.832 614.81,642.082 607.301,657.432C599.554,673.266 576.982,680.497 573.557,699.485C569.104,724.166 596.938,732.982 616.313,734.966C664.651,739.916 708.457,726.291 725.91,676.96C737.135,645.225 744.238,611.547 754.729,579.438C764.879,548.369 784.204,521.46 792.363,490.063C809.245,425.097 798.842,352.11 756.267,300.069C711.82,245.738 651.401,221.485 581.379,224.647C524.92,227.197 492.429,280.904 459.848,320.397C430.648,355.794 402.31,388.154 359.329,407.729C325.276,423.235 281.988,435.275 244.929,441.429C219.738,445.613 193.942,451.954 176.617,449.754" style="fill:rgb(149,87,72);fill-rule:nonzero;"/>
    </g>
    <g transform="matrix(1,0,0,1,0,50.5)">
        <path d="M167.242,88.816C167.242,54.854 154.948,24.744 119.151,15.769C82.048,6.463 42.007,17.11 17.285,46.629C-5.146,73.413 -3.787,112.319 10.195,142.663C18.817,161.379 45.767,197.632 72.017,187.013C81.654,183.113 93.982,162.45 101.698,154.366C112.545,142.997 124.192,132.635 135.717,121.904C147.02,111.379 156.732,101.279 167.242,88.816" style="fill:rgb(149,87,72);fill-rule:nonzero;"/>
    </g>
    <g transform="matrix(1,0,0,1,0,50.5)">
        <path d="M153.179,126.316C166.276,75.763 106.279,35.219 67.888,73.132C37.854,102.794 55.907,145.429 89.198,163.425C104.07,171.463 106.738,167.257 120.76,156.041C131.407,147.522 145.22,140.772 153.179,126.316" style="fill:rgb(250,192,101);fill-rule:nonzero;"/>
    </g>
    <g transform="matrix(1,0,0,1,0,50.5)">
        <path d="M445.312,76.316C445.312,42.354 457.606,12.244 493.403,3.269C530.506,-6.037 570.547,4.61 595.269,34.129C617.7,60.913 616.341,99.819 602.359,130.163C593.737,148.879 566.787,185.132 540.537,174.513C530.9,170.613 518.572,149.95 510.856,141.866C500.009,130.497 488.362,120.135 476.837,109.404C465.534,98.879 455.822,88.779 445.312,76.316" style="fill:rgb(149,87,72);fill-rule:nonzero;"/>
    </g>
    <g transform="matrix(1,0,0,1,0,50.5)">
        <path d="M459.375,113.816C446.278,63.263 506.275,22.719 544.666,60.632C574.7,90.294 556.647,132.929 523.356,150.925C508.484,158.963 505.816,154.757 491.794,143.541C481.147,135.022 467.334,128.272 459.375,113.816" style="fill:rgb(250,192,101);fill-rule:nonzero;"/>
    </g>
    <g transform="matrix(1,0,0,1,0,50.5)">
        <path d="M271.929,35.691C271.929,35.691 156.304,32.566 78.179,140.379C-3.462,253.041 29.742,382.566 123.492,435.691C217.242,488.816 385.992,510.691 485.992,441.941C585.992,373.191 631.304,291.941 590.679,191.941C550.054,91.941 457.867,48.191 387.554,40.379C317.242,32.566 271.929,35.691 271.929,35.691" style="fill:rgb(161,106,92);fill-rule:nonzero;"/>
    </g>
    <g transform="matrix(1,0,0,1,0,50.5)">
        <clipPath id="_clip1">
            <path d="M271.93,35.691C271.93,35.691 156.305,32.566 78.18,140.379C-3.461,253.041 29.742,382.566 123.489,435.691C217.242,488.816 385.992,510.691 485.992,441.941C585.992,373.191 631.305,291.941 590.677,191.941C550.055,91.941 457.867,48.191 387.555,40.379C348.495,36.038 317.148,35.075 297.002,35.075C280.88,35.075 271.93,35.691 271.93,35.691Z"/>
        </clipPath>
        <g clip-path="url(#_clip1)">
            <path d="M178.179,474.754C141.445,436.338 158.942,401.572 192.248,369.719C218.926,344.204 252.635,328.563 287.554,323.191C368.804,310.691 440.092,366.525 451.573,440.763C457.817,481.138 386.32,492.213 356.998,497.272C329.917,501.947 299.235,503.819 271.913,499.813C243.545,495.65 218.263,483.532 178.179,474.754" style="fill:rgb(250,192,101);fill-rule:nonzero;"/>
        </g>
    </g>
    <g transform="matrix(1,0,0,1,0,50.5)">
        <path d="M212.554,301.837C212.554,321.971 196.232,338.296 176.095,338.296C155.96,338.296 139.638,321.971 139.638,301.837C139.638,281.703 155.96,265.378 176.095,265.378C196.232,265.378 212.554,281.703 212.554,301.837" style="fill:white;fill-rule:nonzero;"/>
    </g>
    <g transform="matrix(1,0,0,1,0,50.5)">
        <path d="M197.701,301.837C197.701,313.768 188.029,323.443 176.095,323.443C164.163,323.443 154.492,313.768 154.492,301.837C154.492,289.906 164.163,280.231 176.095,280.231C188.029,280.231 197.701,289.906 197.701,301.837" style="fill:rgb(29,29,27);fill-rule:nonzero;"/>
    </g>
    <g transform="matrix(1,0,0,1,0,50.5)">
        <path d="M189.008,293.735C189.008,296.251 186.967,298.291 184.452,298.291C181.933,298.291 179.892,296.251 179.892,293.735C179.892,291.22 181.933,289.179 184.452,289.179C186.967,289.179 189.008,291.22 189.008,293.735" style="fill:white;fill-rule:nonzero;"/>
    </g>
    <g transform="matrix(1,0,0,1,0,50.5)">
        <path d="M463.596,299.754C463.596,319.888 447.274,336.213 427.137,336.213C407.002,336.213 390.68,319.888 390.68,299.754C390.68,279.619 407.002,263.294 427.137,263.294C447.274,263.294 463.596,279.619 463.596,299.754" style="fill:white;fill-rule:nonzero;"/>
    </g>
    <g transform="matrix(1,0,0,1,0,50.5)">
        <path d="M448.742,299.754C448.742,311.685 439.071,321.36 427.136,321.36C415.205,321.36 405.533,311.685 405.533,299.754C405.533,287.822 415.205,278.147 427.136,278.147C439.071,278.147 448.742,287.822 448.742,299.754" style="fill:rgb(29,29,27);fill-rule:nonzero;"/>
    </g>
    <g transform="matrix(1,0,0,1,0,50.5)">
        <path d="M440.05,291.652C440.05,294.167 438.009,296.208 435.494,296.208C432.975,296.208 430.934,294.167 430.934,291.652C430.934,289.136 432.975,287.095 435.494,287.095C438.009,287.095 440.05,289.136 440.05,291.652" style="fill:white;fill-rule:nonzero;"/>
    </g>
    <g transform="matrix(1,0,0,1,0,50.5)">
        <path d="M346.412,346.345C333.709,330.176 258.6,325.885 262.984,357.66C267.2,388.245 302.275,416.36 327.222,389.829C335.903,380.598 356.112,358.688 346.412,346.345" style="fill:rgb(45,35,23);fill-rule:nonzero;"/>
    </g>
</svg>
